src/img/clients/cardTagRight.svg

<svg width="34" height="33" viewBox="0 0 34 33" fill="none" xmlns="http://www.w3.org/2000/svg">
<path d="M24.7939 3.07268C24.5309 1.81944 23.389 0.873047 22.0231 0.873047C21.7109 0.873047 21.4575 1.11886 21.4575 1.42295C21.4575 1.72705 21.7109 1.97286 22.0231 1.97286C22.9586 1.97286 23.7198 2.71304 23.7198 3.62258C23.7198 4.53213 22.9586 5.27231 22.0231 5.27231C21.7109 5.27231 21.4575 5.51812 21.4575 5.82221C21.4575 6.12631 21.7109 6.37212 22.0231 6.37212C23.3884 6.37212 24.5309 5.42573 24.7939 4.17249H32.2036V9.12166H1.66205V4.17249H9.58023H11.277C11.5892 4.17249 11.8426 3.92668 11.8426 3.62258C11.8426 3.31849 11.5892 3.07268 11.277 3.07268H10.2499C10.484 2.43368 11.1062 1.97286 11.8426 1.97286C12.778 1.97286 13.5393 2.71304 13.5393 3.62258C13.5393 4.53213 12.778 5.27231 11.8426 5.27231C11.5304 5.27231 11.277 5.51812 11.277 5.82221C11.277 6.12631 11.5304 6.37212 11.8426 6.37212C13.4019 6.37212 14.6705 5.13868 14.6705 3.62258C14.6705 2.10649 13.4019 0.873047 11.8426 0.873047C10.4773 0.873047 9.33477 1.81944 9.07177 3.07268H0.530884V10.2215V32.2178H33.3348V10.2215V3.07268H24.7939ZM32.2036 31.118H1.66205V10.2215H32.2036V31.118Z" fill="white"/>
<path d="M15.2361 1.97285C16.1716 1.97285 16.9329 2.71302 16.9329 3.62256C16.9329 4.5321 16.1716 5.27227 15.2361 5.27227C14.9239 5.27227 14.6705 5.51807 14.6705 5.82217C14.6705 6.12626 14.9239 6.37207 15.2361 6.37207C16.7954 6.37207 18.064 5.13864 18.064 3.62256C18.064 2.10648 16.7954 0.873047 15.2361 0.873047C14.9239 0.873047 14.6705 1.11885 14.6705 1.42295C14.6705 1.72705 14.9239 1.97285 15.2361 1.97285Z" fill="white"/>
<path d="M18.6296 1.97285C19.5651 1.97285 20.3264 2.71302 20.3264 3.62256C20.3264 4.5321 19.5651 5.27227 18.6296 5.27227C18.3174 5.27227 18.064 5.51807 18.064 5.82217C18.064 6.12626 18.3174 6.37207 18.6296 6.37207C20.1889 6.37207 21.4576 5.13864 21.4576 3.62256C21.4576 2.10648 20.1889 0.873047 18.6296 0.873047C18.3174 0.873047 18.064 1.11885 18.064 1.42295C18.064 1.72705 18.3174 1.97285 18.6296 1.97285Z" fill="white"/>
<path d="M5.62119 14.6201H18.0641C18.3763 14.6201 18.6296 14.3744 18.6296 14.0703C18.6296 13.7663 18.3763 13.5205 18.0641 13.5205H5.62119C5.30899 13.5205 5.0556 13.7663 5.0556 14.0703C5.0556 14.3744 5.30899 14.6201 5.62119 14.6201Z" fill="white"/>
<path d="M28.2445 22.3193H19.7608C19.4486 22.3193 19.1952 22.5651 19.1952 22.8691C19.1952 23.1732 19.4486 23.4189 19.7608 23.4189H28.2445C28.5567 23.4189 28.8101 23.1732 28.8101 22.8691C28.8101 22.5651 28.5567 22.3193 28.2445 22.3193Z" fill="white"/>
<path d="M5.62119 19.0195H11.2771C11.5893 19.0195 11.8427 18.7738 11.8427 18.4697C11.8427 18.1657 11.5893 17.9199 11.2771 17.9199H5.62119C5.30899 17.9199 5.0556 18.1657 5.0556 18.4697C5.0556 18.7738 5.30899 19.0195 5.62119 19.0195Z" fill="white"/>
<path d="M28.2446 26.7188H22.5888C22.2766 26.7188 22.0232 26.9645 22.0232 27.2686C22.0232 27.5726 22.2766 27.8184 22.5888 27.8184H28.2446C28.5568 27.8184 28.8102 27.5726 28.8102 27.2686C28.8102 26.9645 28.5568 26.7188 28.2446 26.7188Z" fill="white"/>
<path d="M16.3673 18.4697C16.3673 18.7738 16.6207 19.0195 16.9329 19.0195H25.4167C25.7289 19.0195 25.9823 18.7738 25.9823 18.4697C25.9823 18.1657 25.7289 17.9199 25.4167 17.9199H16.9329C16.6207 17.9199 16.3673 18.1657 16.3673 18.4697Z" fill="white"/>
<path d="M14.5059 18.8602C14.6076 18.7558 14.6698 18.6128 14.6698 18.4698C14.6698 18.3263 14.6076 18.1833 14.5059 18.0794C14.2968 17.8759 13.9125 17.8759 13.7033 18.0794C13.6016 18.1833 13.5394 18.3263 13.5394 18.4698C13.5394 18.6128 13.6016 18.7558 13.7033 18.8602C13.8107 18.9642 13.9577 19.0197 14.1046 19.0197C14.2516 19.0197 14.3985 18.9642 14.5059 18.8602Z" fill="white"/>
<path d="M7.88348 22.8691C7.88348 23.1732 8.13687 23.4189 8.44907 23.4189H16.9329C17.2451 23.4189 17.4984 23.1732 17.4984 22.8691C17.4984 22.5651 17.2451 22.3193 16.9329 22.3193H8.44907C8.13687 22.3193 7.88348 22.5651 7.88348 22.8691Z" fill="white"/>
<path d="M5.62079 23.4194C5.76774 23.4194 5.91469 23.3589 6.02208 23.26C6.12382 23.1555 6.18599 23.0125 6.18599 22.8695C6.18599 22.726 6.12382 22.583 6.02208 22.4846C5.81296 22.2756 5.42863 22.2756 5.21951 22.4791C5.11777 22.583 5.0556 22.726 5.0556 22.8695C5.0556 23.0125 5.11777 23.1555 5.21951 23.26C5.3269 23.3589 5.46819 23.4194 5.62079 23.4194Z" fill="white"/>
<path d="M28.2441 19.0197C28.3911 19.0197 28.538 18.9642 28.6454 18.8602C28.7528 18.7558 28.8093 18.6128 28.8093 18.4698C28.8093 18.3263 28.7528 18.1833 28.6454 18.0794C28.4307 17.8759 28.052 17.8759 27.8429 18.0794C27.7411 18.1833 27.679 18.3263 27.679 18.4698C27.679 18.6128 27.7411 18.7558 27.8429 18.8602C27.9502 18.9642 28.0972 19.0197 28.2441 19.0197Z" fill="white"/>
<path d="M19.7608 26.7188H5.62119C5.30899 26.7188 5.0556 26.9645 5.0556 27.2686C5.0556 27.5726 5.30899 27.8184 5.62119 27.8184H19.7608C20.073 27.8184 20.3264 27.5726 20.3264 27.2686C20.3264 26.9645 20.073 26.7188 19.7608 26.7188Z" fill="white"/>
</svg>

<svg width="34" height="33" fill="none" xmlns="http://www.w3.org/2000/svg"><path d="M24.794 3.073c-.263-1.254-1.405-2.2-2.77-2.2a.558.558 0 0 0-.567.55c0 .304.254.55.566.55.936 0 1.697.74 1.697 1.65 0 .91-.761 1.65-1.697 1.65a.558.558 0 0 0-.566.55c0 .303.254.55.566.55 1.365 0 2.508-.947 2.77-2.2h7.41v4.949H1.663v-4.95h9.615a.558.558 0 0 0 .566-.55.558.558 0 0 0-.566-.55H10.25c.234-.638.856-1.1 1.593-1.1.935 0 1.696.741 1.696 1.65 0 .91-.761 1.65-1.696 1.65a.558.558 0 0 0-.566.55c0 .304.253.55.566.55 1.559 0 2.828-1.233 2.828-2.75 0-1.516-1.27-2.749-2.828-2.749-1.366 0-2.508.946-2.771 2.2H.53v29.145h32.804V3.073h-8.541zm7.41 28.045H1.662V10.222h30.542v20.896z" fill="#fff"/><path d="M15.236 1.973c.936 0 1.697.74 1.697 1.65 0 .91-.761 1.65-1.697 1.65a.558.558 0 0 0-.566.55c0 .303.254.55.566.55 1.56 0 2.828-1.234 2.828-2.75 0-1.517-1.269-2.75-2.828-2.75a.558.558 0 0 0-.566.55c0 .304.254.55.566.55zm3.394 0c.935 0 1.696.74 1.696 1.65 0 .91-.76 1.65-1.696 1.65a.558.558 0 0 0-.566.55c0 .303.253.55.566.55 1.559 0 2.828-1.234 2.828-2.75 0-1.517-1.27-2.75-2.828-2.75a.558.558 0 0 0-.566.55c0 .304.253.55.566.55zM5.621 14.62h12.443a.558.558 0 0 0 .566-.55.558.558 0 0 0-.566-.55H5.621a.558.558 0 0 0-.565.55c0 .304.253.55.565.55zm22.623 7.7h-8.483a.558.558 0 0 0-.566.55c0 .303.254.549.566.549h8.483a.558.558 0 0 0 .566-.55.558.558 0 0 0-.566-.55zm-22.623-3.3h5.656a.558.558 0 0 0 .566-.55.558.558 0 0 0-.566-.55H5.621a.558.558 0 0 0-.565.55c0 .304.253.55.565.55zm22.624 7.699h-5.656a.558.558 0 0 0-.566.55c0 .304.254.55.566.55h5.656a.558.558 0 0 0 .565-.55.558.558 0 0 0-.565-.55zM16.367 18.47c0 .304.254.55.566.55h8.484a.558.558 0 0 0 .565-.55.558.558 0 0 0-.565-.55h-8.484a.558.558 0 0 0-.566.55zm-1.861.39a.57.57 0 0 0 .164-.39.568.568 0 0 0-.164-.39.604.604 0 0 0-.803 0 .568.568 0 0 0-.164.39.57.57 0 0 0 .164.39.58.58 0 0 0 .402.16.58.58 0 0 0 .4-.16zm-6.623 4.01c0 .303.254.549.566.549h8.484a.558.558 0 0 0 .565-.55.558.558 0 0 0-.565-.55H8.449a.558.558 0 0 0-.566.55zm-2.263.55a.602.602 0 0 0 .402-.16.57.57 0 0 0 .164-.39.545.545 0 0 0-.164-.385.598.598 0 0 0-.802-.006.568.568 0 0 0-.164.39.57.57 0 0 0 .164.391.59.59 0 0 0 .4.16zm22.624-4.4a.58.58 0 0 0 .401-.16.546.546 0 0 0 0-.78.604.604 0 0 0-.802 0 .568.568 0 0 0-.164.39.57.57 0 0 0 .164.39.58.58 0 0 0 .401.16zm-8.484 7.699H5.622a.558.558 0 0 0-.565.55c0 .304.253.55.565.55h14.14a.558.558 0 0 0 .565-.55.558.558 0 0 0-.565-.55z" fill="#fff"/></svg>
